X:375
T:Edgefauld House 
C:Joe Buchanan's Scottish Tome - Page 040.0
I:040 0
C:J. S Skinner
R:March
Z:Carl Allison
L:1/8
M:4/4
K:D
A, | "D" D2 d>B A"D"F D"Bm"E/F/   | "Em"  GFED "A7" (FE)(EF)  | "G" G2 B>G "D" Ad FD | "Em" G2 "A7" E>A "D" FD D :|
e | "D" f>e de/f/ "A" ec AB/c/   | "Bm" d>c Bc/d/ "F#m" c^A FA | "G" Bd GB "D" Ad FA | "Em" !tenuto!.G!tenuto!.F!tenuto!.E!tenuto!.D "A7" (FE)(EA) |
"D"  d>B d/c/d/f/ "A" ea AB/c/| "Bm" d>c B/^A/B/d/ "F#7" cf FA | "G" B>A GB "D" Ad FA  | "Am" G2 "A7" E>A "D" FD D |]
"
e | "D" f/e/d/c/ d/e/f/d/ "D" A/B/c/d/ A/D/G/D/ | "Em" G/F/G/B/ "A7" D/F/G/A/ "D" FD D :|
e | "G" f/e/d/c/ d/e/f/d/ "A" ea Ac | "Bm" d/c/B/A/ B/c/d/B/ "F#7" cf FA |
"G" B/A/G/F/ G/A/B/G/ "D" Ad FA  | "Em" G/F/E/D/  (FE)(EA)   |
"D" f/e/d/c/ d/e/f/d/ "A" e/f/^g/a/ A/B/c/A/  | "Bm" d/c/B/^A/ B/c/d/B/ "F#7" c/^B/c/f/ F/^G/A/F/ |
"G" B/c/d/B/ G/A/B/G/ "D" A/c/d/D/ F/G/A/F/ | "Em"  G/B/e/g/ "A7" A/c/e/a/ "D" fd d |]

